X: 1635
T: Anne's
R: reel
M: 4/4
K: Dmajor
|:B AG|F2EF DEFD|FAAB B2AB|d2fd BcdB|ABAF EAAG|
F2EF DEFD|FAAB B2AB|d2fd BcdB|Addc d:|
|:e fg|a2ag faaf|efed BddB|A2fA fAAf|AAfA e2fg|
a2ag faaf|efed BddB|A2fA fAAf|AAfe d:|

